!!!COM: Gaspar van Weerbeke
!!!CDT: ~1450-~1517
!!!OTL: Christi mater ave
!!!AGN: Motet
!!!SCT: Gas0406
!!!SCA: Gas0406
!!!voices: 4
**kern	**text	**kern	**text	**kern	**text	**kern	**text
*part4	*part4	*part3	*part3	*part2	*part2	*part1	*part1
*staff4	*staff4	*staff3	*staff3	*staff2	*staff2	*staff1	*staff1
*I"Bassus	*	*I"Tenor	*	*I"Altus	*	*I"Superius	*
*I'B	*	*I'T	*	*I'A	*	*I'S	*
*clefF4	*	*clefGv2	*	*clefGv2	*	*clefG2	*
*k[]	*	*k[]	*	*k[]	*	*k[]	*
*M2/2	*	*M2/2	*	*M2/2	*	*M2/2	*
*met(C|)	*	*met(C|)	*	*met(C|)	*	*met(C|)	*
=1	=1	=1	=1	=1	=1	=1	=1
1r	.	1r	.	1A	Chri-	1r	.
=2	=2	=2	=2	=2	=2	=2	=2
1AA	Chri-	1r	.	2A	-sti	1r	.
.	.	.	.	[2c	ma-	.	.
=3	=3	=3	=3	=3	=3	=3	=3
2AA	-sti	1r	.	4c]	.	1a	Chri-
.	.	.	.	4d	.	.	.
[2C	ma-	.	.	2e	.	.	.
=4	=4	=4	=4	=4	=4	=4	=4
*	*	*	*	*lig	*	*	*
2C]	.	1A	Chri-	1E	.	2a	-sti
[2AA	.	.	.	.	.	[2cc	ma-
=5	=5	=5	=5	=5	=5	=5	=5
2AA]	.	2A	-sti	1A	.	4cc]	.
*	*	*	*	*Xlig	*	*	*
.	.	.	.	.	.	4b	.
[2F	.	[2c	ma-	.	.	[2a	.
=6	=6	=6	=6	=6	=6	=6	=6
2F]	.	2c]	.	2F	.	2a]	.
2E	-ter	2c	-ter	2G	-ter	2g	-ter
!!LO:LB:g=original
=7	=7	=7	=7	=7	=7	=7	=7
1D	a-	1d	a-	1A	a-	1f	a-
=8	=8	=8	=8	=8	=8	=8	=8
1AA	-ve,	1c	-ve,	1A	-ve,	1e	-ve,
=9	=9	=9	=9	=9	=9	=9	=9
1r	.	1r	.	2E	san-	1r	.
.	.	.	.	2F	-ctis-	.	.
=10	=10	=10	=10	=10	=10	=10	=10
2E	san-	1r	.	4E	-si-	1r	.
.	.	.	.	4E	-ma	.	.
2F	-ctis-	.	.	2A	vir-	.	.
=11	=11	=11	=11	=11	=11	=11	=11
4E	-si-	1r	.	4G	-go	1r	.
4E	-ma	.	.	4G	Ma-	.	.
2A	vir-	.	.	4.c	-ri-	.	.
.	.	.	.	8d	.	.	.
=12	=12	=12	=12	=12	=12	=12	=12
4G	-go	1r	.	8eL	.	1r	.
.	.	.	.	8fJ	.	.	.
4G	Ma-	.	.	2e	.	.	.
2F	-ri-	.	.	.	.	.	.
.	.	.	.	4d	.	.	.
!!LO:LB:g=original
=13	=13	=13	=13	=13	=13	=13	=13
2E	-a,	1r	.	2e	-a,	4r	.
.	.	.	.	.	.	4e	san-
*	*	*	*	*	*edit	*	*
4r	.	.	.	4.A	san-	2f	-ctis-
*	*edit	*	*	*	*	*	*
4D	san-	.	.	.	.	.	.
.	.	.	.	8B	.	.	.
=14	=14	=14	=14	=14	=14	=14	=14
4C	-ctis-	4r	.	4c	-ctis-	4e	-si-
4E	-si-	4E	san-	4B	-si-	4e	-ma
2D	-ma	2F	-ctis-	2d	-ma	2a	vir-
=15	=15	=15	=15	=15	=15	=15	=15
2E	vir-	4E	-si-	2B	vir-	4g	-go
.	.	4E	-ma	.	.	4g	Ma-
4C	-go	2A	vir-	4c	-go	2cc	-ri-
4AA	Ma-	.	.	[4e	Ma-	.	.
=16	=16	=16	=16	=16	=16	=16	=16
2E	-ri-	4G	-go	8e]L	.	2b	.
.	.	.	.	8fJ	.	.	.
.	.	4G	Ma-	4g	.	.	.
4F	.	4F	-ri-	4c	-ri-	4a	.
4G	.	4E	.	[4e	.	[4b	.
=17	=17	=17	=17	=17	=17	=17	=17
4E	.	4.G	.	4e]	.	8b]L	.
.	.	.	.	.	.	8ccJ	.
4D	.	.	.	4f	.	4.dd	.
.	.	8A	.	.	.	.	.
4.G	.	2B	.	2d	.	.	.
.	.	.	.	.	.	8ccL	.
.	.	.	.	.	.	8b	.
8F	.	.	.	.	.	8aJ	.
=18	=18	=18	=18	=18	=18	=18	=18
1E	-a,	1B	-a,	1e	-a,	1g	-a,
!!LO:LB:g=original
=19	=19	=19	=19	=19	=19	=19	=19
*	*Xedit	*	*	*	*	*	*
2E	par-	1r	.	1r	.	1r	.
4D	-tu	.	.	.	.	.	.
4D	post	.	.	.	.	.	.
=20	=20	=20	=20	=20	=20	=20	=20
*	*	*	*	*	*Xedit	*	*
4E	par-	1r	.	2e	par-	1r	.
8DL	.	.	.	.	.	.	.
8CJ	.	.	.	.	.	.	.
4BB	.	.	.	4d	-tu	.	.
4D	.	.	.	4d	post	.	.
=21	=21	=21	=21	=21	=21	=21	=21
4C	-tum,	1r	.	4e	par-	1r	.
8BBL	.	.	.	8dL	.	.	.
8AAJ	.	.	.	8cJ	.	.	.
2GG	.	.	.	4B	.	.	.
.	.	.	.	4d	.	.	.
=22	=22	=22	=22	=22	=22	=22	=22
2r	.	1r	.	4c	-tum,	1r	.
.	.	.	.	8BL	.	.	.
.	.	.	.	8AJ	.	.	.
2E	sic-	.	.	2G	.	.	.
=23	=23	=23	=23	=23	=23	=23	=23
4D	-ut	1r	.	2r	.	1r	.
4D	et	.	.	.	.	.	.
4E	an-	.	.	2e	sic-	.	.
8DL	.	.	.	.	.	.	.
8CJ	.	.	.	.	.	.	.
!!LO:PB:g=original
=24	=24	=24	=24	=24	=24	=24	=24
4BB	.	1r	.	4d	-ut	1r	.
4D	-te	.	.	4d	et	.	.
4C	ma-	.	.	4e	an-	.	.
8BBL	.	.	.	8dL	.	.	.
8AAJ	.	.	.	8cJ	.	.	.
=25	=25	=25	=25	=25	=25	=25	=25
2GG	.	1r	.	4B	.	1r	.
.	.	.	.	4d	-te	.	.
4AA	.	.	.	4c	ma-	.	.
4C	.	.	.	8BL	.	.	.
.	.	.	.	8AJ	.	.	.
=26	=26	=26	=26	=26	=26	=26	=26
2BB	.	2r	.	2G#i	.	1r	.
2AA	-nens.	2c	Vir-	2A	-nens.	.	.
=27	=27	=27	=27	=27	=27	=27	=27
1r	.	4B	-go,	1r	.	2r	.
.	.	4B	que	.	.	.	.
.	.	4c	Chri-	.	.	2cc	Vir-
.	.	8BL	.	.	.	.	.
.	.	8AJ	.	.	.	.	.
=28	=28	=28	=28	=28	=28	=28	=28
1r	.	4G	.	1r	.	4b	-go,
.	.	4G	-stum	.	.	4b	que
.	.	4A	pe-	.	.	4cc	Chri-
.	.	4c	-pe-	.	.	8bL	.
.	.	.	.	.	.	8aJ	.
!!LO:LB:g=original
=29	=29	=29	=29	=29	=29	=29	=29
1r	.	2B	-ri-	4r	.	4g	.
.	.	.	.	4d	La-	4g	-stum
.	.	2A	-sti,	2e	-cte	4a	pe-
.	.	.	.	.	.	4cc	-pe-
=30	=30	=30	=30	=30	=30	=30	=30
4r	.	1r	.	4d	e-	2b	-ri-
4G	La-	.	.	4B	-du-	.	.
2A	-cte	.	.	2c	-ca-	2a	-sti,
=31	=31	=31	=31	=31	=31	=31	=31
4G	e-	4r	.	2B	-sti,	1r	.
4E	-du-	4G	la-	.	.	.	.
2F	-ca-	2A	-cte	4r	.	.	.
.	.	.	.	4d	me	.	.
=32	=32	=32	=32	=32	=32	=32	=32
4E	-sti,	4G	e-	4e	re-	4r	.
4E	me	4E	-du-	4c	.	4g	la-
2D	re-	2F	-ca-	2d	.	2a	-cte
=33	=33	=33	=33	=33	=33	=33	=33
4E	.	2E	-sti,	4G	-ge,	4g	e-
4C	.	.	.	2c	.	4e	-du-
2D	.	4r	.	.	.	2f	-ca-
.	.	4B	me	4F	me	.	.
!!LO:LB:g=original
=34	=34	=34	=34	=34	=34	=34	=34
2C	-ge,	2c	re-	2G	ser-	2e	-sti,
4r	.	4B	-ge,	2g	.	4r	.
4G	me	4G	me	.	.	4b	me
=35	=35	=35	=35	=35	=35	=35	=35
4F	ser-	2A	ser-	2c	-va,	2cc	re-
4F	-va,	.	.	.	.	.	.
4G	me	4G	-va,	4r	.	4b	-ge,
4G	tu-	4B	me	4g	me	4g	me
=36	=36	=36	=36	=36	=36	=36	=36
4F	e-	2c	tu-	4c	tu-	2a	ser-
4F	-a-	.	.	4f	-e-	.	.
2G	-re	4B	-e-	4d	-a-	4g	-va,
.	.	4G	-a-	4g	-re	4b	me
=37	=37	=37	=37	=37	=37	=37	=37
4r	.	2A	-re	4e	po-	2cc	tu-
4F	po-	.	.	4f	.	.	.
2G	.	4G	po-	2d	.	4b	-e-
.	.	4B	.	.	.	4g	-a-
=38	=38	=38	=38	=38	=38	=38	=38
4F	.	4c	.	8AL	.	4a	-re
.	.	.	.	8BJ	.	.	.
4E	.	4G	.	4c	.	2g	po-
2D	.	2A	.	2d	.	.	.
.	.	.	.	.	.	4f#i	.
!!LO:LB:g=original
=39	=39	=39	=39	=39	=39	=39	=39
2E	-tens.	2G	-tens.	2B	-tens.	2g	-tens.
4r	.	4r	.	4r	.	4r	.
4G	Me	[4B	Me	4e	Me	4g	Me
=40	=40	=40	=40	=40	=40	=40	=40
2F	ti-	4B]	.	4f	ti-	4a	ti-
.	.	4A	ti-	4d	-bi	4f	-bi
4E	-bi	4B	-bi	4e	com-	4g	com-
4G	com-	4G	com-	4B	.	4b	.
=41	=41	=41	=41	=41	=41	=41	=41
2F	-men-	2A	-men-	4.c	-men-	2a	-men-
.	.	.	.	8d	.	.	.
2E	-do,	2B	-do,	2e	-do,	2g	-do,
=42	=42	=42	=42	=42	=42	=42	=42
4r	.	4r	.	4r	.	4r	.
4E	me,	4G	me,	4c	me,	4e	me,
4D	vir-	4F	vir-	4d	vir-	4f	vir-
4D	-go,	4F	-go,	4B	-go,	4d	-go,
=43	=43	=43	=43	=43	=43	=43	=43
4C	lin-	4G	lin-	4c	lin-	4e	lin-
4E	.	4E	.	4G	.	4g	.
2D	-que-	2F	-que-	4.A	-que-	2f	-que-
.	.	.	.	8B	.	.	.
!!LO:PB:g=original
=44	=44	=44	=44	=44	=44	=44	=44
4.C	-re	4G	-re	4c	-re	4.e	-re
.	.	4.c	no-	2g	no-	.	.
8D	.	.	.	.	.	8f	.
4E	.	.	.	.	.	4g	.
.	.	8B	.	.	.	.	.
4F	.	4A	.	8fL	.	4a	.
.	.	.	.	8eJ	.	.	.
=45	=45	=45	=45	=45	=45	=45	=45
4G	no-	4G	.	4d	.	4b	no-
4A	.	4c	.	4c	.	2cc	.
2G	.	2d	.	2g	.	.	.
.	.	.	.	.	.	4b	.
=46	=46	=46	=46	=46	=46	=46	=46
2C	-li,	2c	-li,	2e	-li,	2cc	-li,
4r	.	4r	.	4r	.	4r	.
4C	ne	4A	ne	4E	ne	4c	ne
=47	=47	=47	=47	=47	=47	=47	=47
2BB	pe-	4B	pe-	2D	pe-	4d	pe-
.	.	4G	-re-	.	.	4B	-re-
4AA	-re-	4c	-am	4C	-re-	2c	-am
4C	-am	[4A	Chri-	[4E	-am	.	.
=48	=48	=48	=48	=48	=48	=48	=48
2BB	Chri-	4A]	.	4E]	.	2d	Chri-
.	.	4G#i	.	4D	Chri-	.	.
2AA	-sto	2A	-sto	2E	-sto	2c	-sto
!!LO:LB:g=original
=49	=49	=49	=49	=49	=49	=49	=49
4r	.	4r	.	4r	.	4r	.
4C	fun-	4A	fun-	4E	fun-	4c	fun-
4BB	-de,	4B	-de,	2D	-de,	4d	-de,
4BB	Ma-	4G	Ma-	.	.	4B	Ma-
=50	=50	=50	=50	=50	=50	=50	=50
4AA	-ri-	4c	-ri-	4C	Ma-	2c	-ri-
4C	.	2A	.	2E	-ri-	.	.
2BB	-a,	.	.	.	.	2d	-a,
.	.	4G#i	.	4D	.	.	.
=51	=51	=51	=51	=51	=51	=51	=51
4.AA	pre-	4A	-a	4E	-a,	4.c	pre-
.	.	2e	pre-	4.c	pre-	.	.
8BB	.	.	.	.	.	8d	.
4C	.	.	.	.	.	4e	.
.	.	.	.	8B	.	.	.
4D	.	8dL	.	4A	.	4f	.
.	.	8cJ	.	.	.	.	.
=52	=52	=52	=52	=52	=52	=52	=52
4E	.	4B	.	4G	.	4g	.
4F	.	4A	.	4d	.	2a	.
2E	.	2B	.	2e	.	.	.
.	.	.	.	.	.	4g#i	.
=53	=53	=53	=53	=53	=53	=53	=53
1AAl	-ces.	1Al	-ces.	1el	-ces.	1al	-ces.
==	==	==	==	==	==	==	==
*-	*-	*-	*-	*-	*-	*-	*-
!!!system-decoration: [*]
!!!RDF**kern: j = editorial accidental, optional, paren up
!!!RDF**kern: i = editorial accidental
!!!RDF**kern: l = terminal breve
!!!PTL: Gaspar van Weerbeke: Collected Works. IV. Motets
!!!ISBN: 978-1-59551-500-1 / 1-59551-500-3
!!!PPR: American Institute of Musicology
!!!PC#: Corpus Mensurabilis Musicae 106/IV
!!!PDT: 2010
!!!PED: Pavanello, Agnese
!!!YEC: Copyright 2008, Pavanello, Agnese
!!!YEM: CC-BY-NC 4.0 (https://creativecommons.org/licenses/by-nc/4.0/legalcode)
!!!EED: Mair-Gruber, Roland
!!!EEV: 2021/08/10
